X: 42510
T: What, Daddy?
R: polka
M: 2/4
K: Aminor
|:cA AG|ED EG|c>d eg|ag e2|
cA AG|ED EG|c>d eg|a2 a2:|
|:ag ge|ag ge|c>d eg|ag e2|
ag ge|ag ge|c>d eg|a2 a2:|

